build/category/CommentSolid.svg

<svg xmlns="http://www.w3.org/2000/svg" fill="none" viewBox="0 0 24 24" focusable="false"><path d="M0 0H24V24H0z"/><path fill="#74767B" fill-rule="evenodd" d="M4 8C4 6.34315 5.34315 5 7 5L17 5C18.6569 5 20 6.34315 20 8L20 14C20 15.6569 18.6569 17 17 17L9.52219 17L6.1121 19.7281C5.26091 20.409 4 19.803 4 18.7129L4 8ZM8.49213 9.64353C8.49213 9.28455 8.78314 8.99353 9.14213 8.99353L14.8578 8.99353C15.2168 8.99353 15.5078 9.28455 15.5078 9.64353C15.5078 10.0025 15.2168 10.2935 14.8578 10.2935L9.14213 10.2935C8.78314 10.2935 8.49213 10.0025 8.49213 9.64353ZM8.49213 12.6361C8.49213 12.2771 8.78314 11.9861 9.14213 11.9861L12.7912 11.9861C13.1501 11.9861 13.4412 12.2771 13.4412 12.6361C13.4412 12.9951 13.1501 13.2861 12.7912 13.2861L9.14213 13.2861C8.78314 13.2861 8.49213 12.9951 8.49213 12.6361Z"/></svg>

<svg xmlns="http://www.w3.org/2000/svg" fill="none" viewBox="0 0 24 24" focusable="false"><path fill="#74767B" fill-rule="evenodd" d="M4 8c0-1.66 1.34-3 3-3h10c1.65 0 3 1.34 3 3v6c0 1.65-1.35 3-3 3H9.52l-3.41 2.72C5.26 20.4 4 19.8 4 18.71zm4.49 1.64c0-.36.29-.65.65-.65h5.71c.36 0 .65.29.65.65s-.29.65-.65.65H9.14c-.36 0-.65-.29-.65-.65m0 2.99c0-.36.29-.65.65-.65h3.65c.35 0 .65.29.65.65s-.3.65-.65.65H9.14c-.36 0-.65-.29-.65-.65"/></svg>
